packages/ui-icons/src/System/32/Rating_3_32.svg

<svg xmlns="http://www.w3.org/2000/svg" viewBox="0 0 40 40" style="enable-background:new 0 0 40 40" xml:space="preserve"><path d="M15 14c1.1 0 2 .9 2 2s-.9 2-2 2-2-.9-2-2 .9-2 2-2zm10 0c1.1 0 2 .9 2 2s-.9 2-2 2-2-.9-2-2 .9-2 2-2zm-5 22c-8.8 0-16-7.2-16-16S11.2 4 20 4s16 7.2 16 16-7.2 16-16 16zm0-2c7.7 0 14-6.3 14-14S27.7 6 20 6 6 12.3 6 20s6.3 14 14 14zm-6.1-9.1 12 1.2.2-2-12-1.2-.2 2z"/></svg>

<?xml version="1.0" encoding="utf-8"?>
<!-- Generator: Adobe Illustrator 23.0.1, SVG Export Plug-In . SVG Version: 6.00 Build 0)  -->
<svg version="1.1" id="Layer_1" xmlns="http://www.w3.org/2000/svg" xmlns:xlink="http://www.w3.org/1999/xlink" x="0px" y="0px"
	 viewBox="0 0 40 40" style="enable-background:new 0 0 40 40;" xml:space="preserve">
<title>Source/System Icons/32/Rating_3_32</title>
<desc>Created with Sketch.</desc>
<path d="M15,14c1.1,0,2,0.9,2,2s-0.9,2-2,2s-2-0.9-2-2S13.9,14,15,14z M25,14c1.1,0,2,0.9,2,2s-0.9,2-2,2s-2-0.9-2-2S23.9,14,25,14z
	 M20,36c-8.8,0-16-7.2-16-16S11.2,4,20,4s16,7.2,16,16S28.8,36,20,36z M20,34c7.7,0,14-6.3,14-14S27.7,6,20,6S6,12.3,6,20
	S12.3,34,20,34z M13.9,24.9l12,1.2l0.2-2l-12-1.2L13.9,24.9z"/>
</svg>
